X: 1
T: Doctor Gilbert's
R: reel
M: 4/4
L: 1/8
K: Edor
|:eBBA B2Bc|dBAd BAGF|EDB,D G2 FG|EDB,E DB,A,2|
|B,EEF EDB,D|GEFD EFGA|(3Bcd ed Bdgb|afdf e2gf:|
|eBB2 gBB2|defg afdf|g2 bg fgaf|egfd edB2|
|afdf edBc|dBAF AFD2|EG=cA Bdgb|afdf e3 f:|